X: 297
T: Trip to Oxford
%R: jig
Z: 2014 John Chambers <jc:trillian.mit.edu>
B: Preston "Twenty four Country Dances for the Year 1796" p.129 #1
F: http://www.vwml.org/browse/browse-collections-dance-tune-books/browse-prestons1796# 2014-8-10
N: Corrected typo in dance:  "cost" -> "cast".
M: 6/8
L: 1/8
K: A
|:\
(efe) (ecA) | (fga) (ecA) | (efe) (ecA) | (GBc) (dcB) |\
(efe) (ecA) | (^dfg) (agf) | (gfe) (fe^d) | e3 E3 :|
|:\
(ecA) (ecA) | (fdA) (ecA) | (fed) (cBA) | (GBA) (GFE) |\
(FGA) (Bcd) | (GAB) (cde) | (Fdc) (BAG) | A3 A3 :|
% - - - - - - - - - - - - - - - - - - - - - - - - -
%%begintext align
%% Down the middle up again and cast of
%% Allemande hands 4 at bottom right & left
%%endtext
% - - - - - - - - - - - - - - - - - - - - - - - - -

%%sep 1 1 500
%%sep 1 1 500
